img/payment/img2_v2.svg

<svg width="54" height="18" viewBox="0 0 54 18" fill="none" xmlns="http://www.w3.org/2000/svg">
<path d="M23.373 16.94H19.1003L21.7873 0.465912H26.06L23.373 16.94Z" fill="#0383FD"/>
<path d="M15.4884 0.465912L11.3919 11.7863L10.9074 9.36367L9.45381 1.96355C9.45381 1.96355 9.27762 0.465912 7.42759 0.465912H0.688194L0.600098 0.730201C0.600098 0.730201 2.67037 1.17068 5.09303 2.62428L8.83713 16.94H13.286L20.1135 0.465912H15.4884Z" fill="#0383FD"/>
<path d="M49.2296 16.94H53.1499L49.7141 0.465912H46.2784C44.6926 0.465912 44.2962 1.69926 44.2962 1.69926L37.9092 16.94H42.3581L43.239 14.4733H48.701L49.2296 16.94ZM44.5164 11.0816L46.7629 4.91479L48.0403 11.0816H44.5164Z" fill="#0383FD"/>
<path d="M38.2173 4.43018L38.8339 0.906312C38.8339 0.906312 36.9398 0.201538 34.9577 0.201538C32.8434 0.201538 27.7778 1.12655 27.7778 5.66353C27.7778 9.93622 33.7243 9.98026 33.7243 12.2267C33.7243 14.4732 28.3945 14.0768 26.6325 12.6672L26.0159 16.3673C26.0159 16.3673 27.9099 17.2923 30.8612 17.2923C33.7684 17.2923 38.2173 15.7946 38.2173 11.6541C38.2173 7.38141 32.2267 6.98498 32.2267 5.0909C32.2267 3.15278 36.4113 3.41707 38.2173 4.43018Z" fill="#0383FD"/>
</svg>

<svg width="54" height="18" fill="none" xmlns="http://www.w3.org/2000/svg"><path d="M23.373 16.94H19.1L21.787.466h4.273L23.373 16.94zM15.488.466l-4.096 11.32-.485-2.422-1.453-7.4S9.278.466 7.428.466H.688L.6.73s2.07.44 4.493 1.894L8.837 16.94h4.449L20.113.466h-4.625zM49.23 16.94h3.92L49.714.466h-3.436c-1.585 0-1.982 1.233-1.982 1.233L37.91 16.94h4.45l.88-2.467h5.462l.529 2.467zm-4.714-5.858l2.247-6.167 1.277 6.167h-3.524zM38.217 4.43l.617-3.524S36.94.202 34.958.202c-2.115 0-7.18.925-7.18 5.462 0 4.272 5.946 4.316 5.946 6.563 0 2.246-5.33 1.85-7.091.44l-.617 3.7s1.894.925 4.845.925c2.907 0 7.356-1.497 7.356-5.638 0-4.273-5.99-4.669-5.99-6.563 0-1.938 4.184-1.674 5.99-.66z" fill="#0383FD"/></svg>
